X:1
T:Title
%%score 1 2
L:1/8
Q:1/4=80
M:4/4
K:Ab
V:1 treble nm="Strings 1, Soprano"
V:2 bass nm="Strings 1, Bass"
V:1
 z4 z2 CC | [CF]2 [FA][FA] [=EG]2 CC | [FA][=EG][FA][GB] [Ac]2 [Fc][Fc] | %3
w: 1.~'Tis~ so~|sweet~ just~ to~ know,~ as~ I~|with~ my~ Sav ior~ go,~ If~ I~|
 [Fc]2 [FB][FA] [=EG]2 [FA][CG] | [CF]6 CC | [CF]2 [FA][FA] [=EG]2 CC | %6
w: heed~ eve ry~ sa cred~ com|mand~ That~ when~|sor rows~ be tide~ I~ may~|
 [FA][=EG][FA][EB] [Fc]2 [Fc][Fc] | [Fc]2 [FB][FA] [=EG]2 [FA][CG] | [CF]6 [Ac][Ac] | %9
w: in~ the~ ref uge~ hide;~ He~ up|holds~ me~ se cure~ with~ His~|hand.~ * *|
 [Ac]2 [B=e][Be] [Af]2 [Ac][Ac] | [Ac][GB][FA][GB] [Ac]2 [B=e][Be] | %11
w: ||
 [Af]2 [Af][Be] [Ac]2 [FA][FA] | [=EG]6 CC | [CF]2 [FA][FA] [=EG]2 CC | %14
w: |||
 [FA][=EG][FA][EB] [Fc]2 [Fc][Fc] | [Fc]2 [FB][FA] [=EG]2 [FA][CG] | [CF]6 z2 |] %17
w: |||
V:2
 z4 z2 [F,A,][F,A,] | [F,A,]2 [F,C][F,C] [C,C]2 [=E,C][E,C] | %2
 [F,C][F,C][F,C][F,C] [F,C]2 [F,A,][F,A,] | [A,,C]2 [B,,D][B,,D] [C,C]2 [C,C][C,B,] | %4
 [F,A,]6 [F,A,][F,A,] | [F,A,]2 [F,C][F,C] [C,C]2 [=E,C][E,C] | %6
 [F,C][F,C][F,C][G,C] [A,C]2 [F,A,][F,A,] | [A,,C]2 [B,,D][B,,D] [C,C]2 [C,C][C,B,] | %8
 [F,A,]6 [F,C][F,C] | [F,C]2 [C,C][C,C] [F,C]2 [F,F][F,F] | %10
 [F,C][F,C][F,C][F,C] [F,C]2 [G,C][G,C] | [F,C]2 [F,C][K:treble][G,C] [A,F]2 CC | %12
 [C,C]6 [=E,B,][E,B,] | [F,A,]2 [F,C][F,C] [C,C]2 [=E,C][E,C] | %14
 [F,C][F,C][F,C][G,C] [A,C]2 [F,A,][F,A,] | [A,,C]2 [B,,D][B,,D] [C,C]2 [C,C][C,B,] | %16
 [F,,F,A,]6 z2 |] %17

